src/activities/memory-math-div/memory-math-div.svg

<?xml version="1.0" encoding="UTF-8" standalone="no"?>
<!-- Created with Inkscape (http://www.inkscape.org/) -->

<svg
   xmlns:dc="http://purl.org/dc/elements/1.1/"
   xmlns:cc="http://creativecommons.org/ns#"
   xmlns:rdf="http://www.w3.org/1999/02/22-rdf-syntax-ns#"
   xmlns:svg="http://www.w3.org/2000/svg"
   xmlns="http://www.w3.org/2000/svg"
   xmlns:sodipodi="http://sodipodi.sourceforge.net/DTD/sodipodi-0.dtd"
   xmlns:inkscape="http://www.inkscape.org/namespaces/inkscape"
   width="100"
   height="100"
   id="svg1949"
   sodipodi:version="0.32"
   inkscape:version="0.91 r13725"
   version="1.0"
   sodipodi:docname="memory-math-div.svg">
  <defs
     id="defs1951" />
  <sodipodi:namedview
     id="base"
     pagecolor="#ffffff"
     bordercolor="#666666"
     borderopacity="1.0"
     inkscape:pageopacity="0.0"
     inkscape:pageshadow="2"
     inkscape:zoom="6.0595767"
     inkscape:cx="73.796973"
     inkscape:cy="62.564376"
     inkscape:document-units="px"
     inkscape:current-layer="layer1"
     width="100px"
     height="100px"
     inkscape:window-width="1880"
     inkscape:window-height="1060"
     inkscape:window-x="-3"
     inkscape:window-y="-3"
     showgrid="false"
     inkscape:window-maximized="1" />
  <metadata
     id="metadata1954">
    <rdf:RDF>
      <cc:Work
         rdf:about="">
        <dc:format>image/svg+xml</dc:format>
        <dc:type
           rdf:resource="http://purl.org/dc/dcmitype/StillImage" />
        <dc:title></dc:title>
        <dc:date>2015</dc:date>
        <dc:creator>
          <cc:Agent>
            <dc:title>Timothée Giet</dc:title>
          </cc:Agent>
        </dc:creator>
        <cc:license
           rdf:resource="http://creativecommons.org/licenses/by-sa/4.0/" />
      </cc:Work>
      <cc:License
         rdf:about="http://creativecommons.org/licenses/by-sa/4.0/">
        <cc:permits
           rdf:resource="http://creativecommons.org/ns#Reproduction" />
        <cc:permits
           rdf:resource="http://creativecommons.org/ns#Distribution" />
        <cc:requires
           rdf:resource="http://creativecommons.org/ns#Notice" />
        <cc:requires
           rdf:resource="http://creativecommons.org/ns#Attribution" />
        <cc:permits
           rdf:resource="http://creativecommons.org/ns#DerivativeWorks" />
        <cc:requires
           rdf:resource="http://creativecommons.org/ns#ShareAlike" />
      </cc:License>
    </rdf:RDF>
  </metadata>
  <g
     inkscape:label="Calque 1"
     inkscape:groupmode="layer"
     id="layer1">
    <rect
       style="color:#000000;clip-rule:nonzero;display:inline;overflow:visible;visibility:visible;opacity:1;isolation:auto;mix-blend-mode:normal;color-interpolation:sRGB;color-interpolation-filters:linearRGB;solid-color:#000000;solid-opacity:1;fill:#315793;fill-opacity:1;fill-rule:nonzero;stroke:none;stroke-width:1.18700004;stroke-linecap:butt;stroke-linejoin:miter;stroke-miterlimit:4;stroke-dasharray:none;stroke-dashoffset:0;stroke-opacity:1;marker:none;color-rendering:auto;image-rendering:auto;shape-rendering:auto;text-rendering:auto;enable-background:accumulate"
       id="rect4232-3-6"
       width="45.734158"
       height="63.444962"
       x="51.724503"
       y="34.605618"
       ry="6.2731266" />
    <rect
       style="color:#000000;clip-rule:nonzero;display:inline;overflow:visible;visibility:visible;opacity:1;isolation:auto;mix-blend-mode:normal;color-interpolation:sRGB;color-interpolation-filters:linearRGB;solid-color:#000000;solid-opacity:1;fill:#aac2e7;fill-opacity:1;fill-rule:nonzero;stroke:none;stroke-width:1.18700004;stroke-linecap:butt;stroke-linejoin:miter;stroke-miterlimit:4;stroke-dasharray:none;stroke-dashoffset:0;stroke-opacity:1;marker:none;color-rendering:auto;image-rendering:auto;shape-rendering:auto;text-rendering:auto;enable-background:accumulate"
       id="rect4232-7"
       width="42"
       height="60.410957"
       x="53.591583"
       y="36.12262"
       ry="5.9731393" />
    <rect
       style="color:#000000;clip-rule:nonzero;display:inline;overflow:visible;visibility:visible;opacity:1;isolation:auto;mix-blend-mode:normal;color-interpolation:sRGB;color-interpolation-filters:linearRGB;solid-color:#000000;solid-opacity:1;fill:#315793;fill-opacity:1;fill-rule:nonzero;stroke:none;stroke-width:1.18700004;stroke-linecap:butt;stroke-linejoin:miter;stroke-miterlimit:4;stroke-dasharray:none;stroke-dashoffset:0;stroke-opacity:1;marker:none;color-rendering:auto;image-rendering:auto;shape-rendering:auto;text-rendering:auto;enable-background:accumulate"
       id="rect4232-3"
       width="45.734158"
       height="63.444962"
       x="2.5413461"
       y="34.605618"
       ry="6.2731266" />
    <rect
       style="color:#000000;clip-rule:nonzero;display:inline;overflow:visible;visibility:visible;opacity:1;isolation:auto;mix-blend-mode:normal;color-interpolation:sRGB;color-interpolation-filters:linearRGB;solid-color:#000000;solid-opacity:1;fill:#3771c8;fill-opacity:1;fill-rule:nonzero;stroke:none;stroke-width:1.18700004;stroke-linecap:butt;stroke-linejoin:miter;stroke-miterlimit:4;stroke-dasharray:none;stroke-dashoffset:0;stroke-opacity:1;marker:none;color-rendering:auto;image-rendering:auto;shape-rendering:auto;text-rendering:auto;enable-background:accumulate"
       id="rect4232"
       width="42"
       height="60.410957"
       x="4.4084249"
       y="36.12262"
       ry="5.9731393" />
    <path
       style="color:#000000;clip-rule:nonzero;display:inline;overflow:visible;visibility:visible;opacity:1;isolation:auto;mix-blend-mode:normal;color-interpolation:sRGB;color-interpolation-filters:linearRGB;solid-color:#000000;solid-opacity:1;fill:#ebf1fa;fill-opacity:1;fill-rule:nonzero;stroke:none;stroke-width:1.18700004;stroke-linecap:butt;stroke-linejoin:miter;stroke-miterlimit:4;stroke-dasharray:none;stroke-dashoffset:0;stroke-opacity:1;marker:none;color-rendering:auto;image-rendering:auto;shape-rendering:auto;text-rendering:auto;enable-background:accumulate"
       id="path4189-3-6"
       sodipodi:type="arc"
       sodipodi:cx="25.408415"
       sodipodi:cy="66.32811"
       sodipodi:rx="17.540121"
       sodipodi:ry="17.540121"
       sodipodi:start="0.14344896"
       sodipodi:end="0.14048923"
       sodipodi:open="true"
       d="M 42.768378,68.835601 A 17.540121,17.540121 0 0 1 22.913769,83.689924 17.540121,17.540121 0 0 1 8.0447596,63.846311 17.540121,17.540121 0 0 1 27.877365,48.962623 17.540121,17.540121 0 0 1 42.775724,68.78421" />
    <path
       style="fill:#6f79b9;fill-opacity:1;fill-rule:evenodd;stroke:none;stroke-width:1px;stroke-linecap:butt;stroke-linejoin:miter;stroke-opacity:1"
       d="M 31.977757,59.88952 27.5763,64.159588 c 0,0 -3.710051,-0.788813 -3.744519,2.364954 -0.04532,4.146096 4.506057,3.20884 4.072986,2.627743 -0.131503,-0.176452 -1.821555,-1.299375 -2.430653,-2.233586 -0.41801,-0.641117 5.277365,-2.62773 8.145974,-3.613129 0,0 2.709247,10.609555 -5.321159,12.284659 -11.473784,2.39337 -14.727473,-10.098637 -8.55656,-16.201622 2.903887,-2.871917 7.636852,-3.604922 12.235388,0.500913 z"
       id="path4187"
       inkscape:connector-curvature="0"
       sodipodi:nodetypes="ccssscssc" />
    <path
       style="color:#000000;clip-rule:nonzero;display:inline;overflow:visible;visibility:visible;opacity:1;isolation:auto;mix-blend-mode:normal;color-interpolation:sRGB;color-interpolation-filters:linearRGB;solid-color:#000000;solid-opacity:1;fill:#ead952;fill-opacity:1;fill-rule:nonzero;stroke:none;stroke-width:1.18700004;stroke-linecap:butt;stroke-linejoin:miter;stroke-miterlimit:4;stroke-dasharray:none;stroke-dashoffset:0;stroke-opacity:1;marker:none;color-rendering:auto;image-rendering:auto;shape-rendering:auto;text-rendering:auto;enable-background:accumulate"
       d="M 24.954129,50.56827 A 15.766404,15.766404 0 0 0 9.800605,64.097034 15.766404,15.766404 0 0 0 23.166137,81.934277 15.766404,15.766404 0 0 0 41.012614,68.582004 l 0.007,-0.0462 A 15.766404,15.766404 0 0 0 27.627468,50.718807 15.766404,15.766404 0 0 0 24.954129,50.56827 Z m 0.109581,3.808425 a 11.956188,11.956188 0 0 1 2.027931,0.1142 11.956188,11.956188 0 0 1 10.155224,13.511457 l -0.0053,0.03518 A 11.956188,11.956188 0 0 1 23.707667,78.162755 11.956188,11.956188 0 0 1 13.572631,64.636301 11.956188,11.956188 0 0 1 25.063658,54.376682 Z"
       id="path4189"
       inkscape:connector-curvature="0" />
    <path
       style="color:#000000;clip-rule:nonzero;display:inline;overflow:visible;visibility:visible;opacity:1;isolation:auto;mix-blend-mode:normal;color-interpolation:sRGB;color-interpolation-filters:linearRGB;solid-color:#000000;solid-opacity:1;fill:#ebf1f9;fill-opacity:1;fill-rule:nonzero;stroke:none;stroke-width:1.18700004;stroke-linecap:butt;stroke-linejoin:miter;stroke-miterlimit:4;stroke-dasharray:none;stroke-dashoffset:0;stroke-opacity:1;marker:none;color-rendering:auto;image-rendering:auto;shape-rendering:auto;text-rendering:auto;enable-background:accumulate"
       id="path4239"
       sodipodi:type="arc"
       sodipodi:cx="74.591583"
       sodipodi:cy="66.328094"
       sodipodi:rx="18.648167"
       sodipodi:ry="18.648167"
       sodipodi:start="0.14344896"
       sodipodi:end="0.14048923"
       sodipodi:open="true"
       d="M 93.048211,68.99399 A 18.648167,18.648167 0 0 1 71.939345,84.78669 18.648167,18.648167 0 0 1 56.13103,63.689516 18.648167,18.648167 0 0 1 77.216502,47.865594 18.648167,18.648167 0 0 1 93.056021,68.939351" />
    <g
       id="g4189"
       transform="translate(0.32897002,2.1391804)">
      <path
         sodipodi:nodetypes="sssss"
         inkscape:connector-curvature="0"
         id="path4404-0-9-3-5"
         d="m 76.465328,55.135229 c 1.417952,-0.943857 5.350787,0.05978 5.562272,0.660225 0.211484,0.600442 -9.210512,17.218635 -9.763494,17.649111 -0.552985,0.430475 -5.652846,0.0474 -5.768991,-0.50139 -0.116146,-0.548791 9.970213,-17.807946 9.970213,-17.807946 z"
         style="display:inline;fill:#8d2626;fill-opacity:1;fill-rule:evenodd;stroke:none;stroke-width:1px;stroke-linecap:butt;stroke-linejoin:miter;stroke-opacity:1" />
      <path
         sodipodi:nodetypes="sssss"
         inkscape:connector-curvature="0"
         id="path4404-3-5-6"
         d="m 76.605872,56.474948 c 1.142281,-0.891463 4.057891,-0.323044 4.176556,0.166394 0.118664,0.489438 -8.193263,15.100926 -8.643088,15.500971 -0.449825,0.400043 -4.294674,0.434116 -4.344563,-0.0186 -0.04989,-0.452718 8.811095,-15.648765 8.811095,-15.648765 z"
         style="display:inline;fill:#e63232;fill-opacity:1;fill-rule:evenodd;stroke:none;stroke-width:1px;stroke-linecap:butt;stroke-linejoin:miter;stroke-opacity:1" />
    </g>
  </g>
</svg>

<!--Created with Inkscape (http://www.inkscape.org/)--><svg xmlns:dc="http://purl.org/dc/elements/1.1/" xmlns:cc="http://creativecommons.org/ns#" xmlns:rdf="http://www.w3.org/1999/02/22-rdf-syntax-ns#" xmlns="http://www.w3.org/2000/svg" xmlns:sodipodi="http://sodipodi.sourceforge.net/DTD/sodipodi-0.dtd" xmlns:inkscape="http://www.inkscape.org/namespaces/inkscape" width="100" height="100" sodipodi:version="0.32" inkscape:version="0.91 r13725" version="1.0" sodipodi:docname="memory-math-div.svg"><sodipodi:namedview pagecolor="#ffffff" bordercolor="#666666" borderopacity="1.0" inkscape:pageopacity="0.0" inkscape:pageshadow="2" inkscape:zoom="6.0595767" inkscape:cx="73.796973" inkscape:cy="62.564376" inkscape:document-units="px" inkscape:current-layer="layer1" width="100px" height="100px" inkscape:window-width="1880" inkscape:window-height="1060" inkscape:window-x="-3" inkscape:window-y="-3" showgrid="false" inkscape:window-maximized="1"/><metadata><rdf:RDF><cc:Work><dc:format>image/svg+xml</dc:format><dc:type rdf:resource="http://purl.org/dc/dcmitype/StillImage"/><dc:title/><dc:date>2015</dc:date><dc:creator><cc:Agent><dc:title>Timothée Giet</dc:title></cc:Agent></dc:creator><cc:license rdf:resource="http://creativecommons.org/licenses/by-sa/4.0/"/></cc:Work><cc:License rdf:about="http://creativecommons.org/licenses/by-sa/4.0/"><cc:permits rdf:resource="http://creativecommons.org/ns#Reproduction"/><cc:permits rdf:resource="http://creativecommons.org/ns#Distribution"/><cc:requires rdf:resource="http://creativecommons.org/ns#Notice"/><cc:requires rdf:resource="http://creativecommons.org/ns#Attribution"/><cc:permits rdf:resource="http://creativecommons.org/ns#DerivativeWorks"/><cc:requires rdf:resource="http://creativecommons.org/ns#ShareAlike"/></cc:License></rdf:RDF></metadata><g inkscape:label="Calque 1" inkscape:groupmode="layer"><rect style="color:#000;clip-rule:nonzero;display:inline;overflow:visible;visibility:visible;opacity:1;isolation:auto;mix-blend-mode:normal;color-interpolation:sRGB;color-interpolation-filters:linearRGB;solid-color:#000;solid-opacity:1;fill:#315793;fill-opacity:1;fill-rule:nonzero;stroke:none;stroke-width:1.18700004;stroke-linecap:butt;stroke-linejoin:miter;stroke-miterlimit:4;stroke-dasharray:none;stroke-dashoffset:0;stroke-opacity:1;marker:none;color-rendering:auto;image-rendering:auto;shape-rendering:auto;text-rendering:auto;enable-background:accumulate" width="45.734158" height="63.444962" x="51.724503" y="34.605618" ry="6.2731266"/><rect style="color:#000;clip-rule:nonzero;display:inline;overflow:visible;visibility:visible;opacity:1;isolation:auto;mix-blend-mode:normal;color-interpolation:sRGB;color-interpolation-filters:linearRGB;solid-color:#000;solid-opacity:1;fill:#aac2e7;fill-opacity:1;fill-rule:nonzero;stroke:none;stroke-width:1.18700004;stroke-linecap:butt;stroke-linejoin:miter;stroke-miterlimit:4;stroke-dasharray:none;stroke-dashoffset:0;stroke-opacity:1;marker:none;color-rendering:auto;image-rendering:auto;shape-rendering:auto;text-rendering:auto;enable-background:accumulate" width="42" height="60.410957" x="53.591583" y="36.12262" ry="5.9731393"/><rect style="color:#000;clip-rule:nonzero;display:inline;overflow:visible;visibility:visible;opacity:1;isolation:auto;mix-blend-mode:normal;color-interpolation:sRGB;color-interpolation-filters:linearRGB;solid-color:#000;solid-opacity:1;fill:#315793;fill-opacity:1;fill-rule:nonzero;stroke:none;stroke-width:1.18700004;stroke-linecap:butt;stroke-linejoin:miter;stroke-miterlimit:4;stroke-dasharray:none;stroke-dashoffset:0;stroke-opacity:1;marker:none;color-rendering:auto;image-rendering:auto;shape-rendering:auto;text-rendering:auto;enable-background:accumulate" width="45.734158" height="63.444962" x="2.5413461" y="34.605618" ry="6.2731266"/><rect style="color:#000;clip-rule:nonzero;display:inline;overflow:visible;visibility:visible;opacity:1;isolation:auto;mix-blend-mode:normal;color-interpolation:sRGB;color-interpolation-filters:linearRGB;solid-color:#000;solid-opacity:1;fill:#3771c8;fill-opacity:1;fill-rule:nonzero;stroke:none;stroke-width:1.18700004;stroke-linecap:butt;stroke-linejoin:miter;stroke-miterlimit:4;stroke-dasharray:none;stroke-dashoffset:0;stroke-opacity:1;marker:none;color-rendering:auto;image-rendering:auto;shape-rendering:auto;text-rendering:auto;enable-background:accumulate" width="42" height="60.410957" x="4.4084249" y="36.12262" ry="5.9731393"/><path style="color:#000;clip-rule:nonzero;display:inline;overflow:visible;visibility:visible;opacity:1;isolation:auto;mix-blend-mode:normal;color-interpolation:sRGB;color-interpolation-filters:linearRGB;solid-color:#000;solid-opacity:1;fill:#ebf1fa;fill-opacity:1;fill-rule:nonzero;stroke:none;stroke-width:1.18700004;stroke-linecap:butt;stroke-linejoin:miter;stroke-miterlimit:4;stroke-dasharray:none;stroke-dashoffset:0;stroke-opacity:1;marker:none;color-rendering:auto;image-rendering:auto;shape-rendering:auto;text-rendering:auto;enable-background:accumulate" sodipodi:type="arc" sodipodi:cx="25.408415" sodipodi:cy="66.32811" sodipodi:rx="17.540121" sodipodi:ry="17.540121" sodipodi:start="0.14344896" sodipodi:end="0.14048923" sodipodi:open="true" d="M42.768 68.836A17.54 17.54 0 0 1 22.914 83.69a17.54 17.54 0 0 1-14.87-19.844 17.54 17.54 0 0 1 19.833-14.883 17.54 17.54 0 0 1 14.899 19.821"/><path style="fill:#6f79b9;fill-opacity:1;fill-rule:evenodd;stroke:none;stroke-width:1px;stroke-linecap:butt;stroke-linejoin:miter;stroke-opacity:1" d="m31.978 59.89-4.402 4.27s-3.71-.79-3.744 2.365c-.046 4.146 4.506 3.208 4.073 2.627-.132-.176-1.822-1.3-2.43-2.233-.419-.641 5.276-2.628 8.145-3.613 0 0 2.71 10.61-5.321 12.284-11.474 2.394-14.728-10.098-8.557-16.201 2.904-2.872 7.637-3.605 12.236.5z" inkscape:connector-curvature="0" sodipodi:nodetypes="ccssscssc"/><path style="color:#000;clip-rule:nonzero;display:inline;overflow:visible;visibility:visible;opacity:1;isolation:auto;mix-blend-mode:normal;color-interpolation:sRGB;color-interpolation-filters:linearRGB;solid-color:#000;solid-opacity:1;fill:#ead952;fill-opacity:1;fill-rule:nonzero;stroke:none;stroke-width:1.18700004;stroke-linecap:butt;stroke-linejoin:miter;stroke-miterlimit:4;stroke-dasharray:none;stroke-dashoffset:0;stroke-opacity:1;marker:none;color-rendering:auto;image-rendering:auto;shape-rendering:auto;text-rendering:auto;enable-background:accumulate" d="M24.954 50.568A15.766 15.766 0 0 0 9.801 64.097a15.766 15.766 0 0 0 13.365 17.837 15.766 15.766 0 0 0 17.847-13.352l.007-.046a15.766 15.766 0 0 0-13.393-17.817 15.766 15.766 0 0 0-2.673-.15zm.11 3.809a11.956 11.956 0 0 1 2.028.114 11.956 11.956 0 0 1 10.155 13.511l-.005.036a11.956 11.956 0 0 1-13.534 10.125 11.956 11.956 0 0 1-10.135-13.527 11.956 11.956 0 0 1 11.49-10.26z" inkscape:connector-curvature="0"/><path style="color:#000;clip-rule:nonzero;display:inline;overflow:visible;visibility:visible;opacity:1;isolation:auto;mix-blend-mode:normal;color-interpolation:sRGB;color-interpolation-filters:linearRGB;solid-color:#000;solid-opacity:1;fill:#ebf1f9;fill-opacity:1;fill-rule:nonzero;stroke:none;stroke-width:1.18700004;stroke-linecap:butt;stroke-linejoin:miter;stroke-miterlimit:4;stroke-dasharray:none;stroke-dashoffset:0;stroke-opacity:1;marker:none;color-rendering:auto;image-rendering:auto;shape-rendering:auto;text-rendering:auto;enable-background:accumulate" sodipodi:type="arc" sodipodi:cx="74.591583" sodipodi:cy="66.328094" sodipodi:rx="18.648167" sodipodi:ry="18.648167" sodipodi:start="0.14344896" sodipodi:end="0.14048923" sodipodi:open="true" d="M93.048 68.994A18.648 18.648 0 0 1 71.94 84.787 18.648 18.648 0 0 1 56.131 63.69a18.648 18.648 0 0 1 21.086-15.824 18.648 18.648 0 0 1 15.839 21.073"/><path sodipodi:nodetypes="sssss" inkscape:connector-curvature="0" d="M76.465 55.135c1.418-.944 5.351.06 5.563.66.211.6-9.21 17.22-9.764 17.65-.553.43-5.653.047-5.769-.502-.116-.549 9.97-17.808 9.97-17.808z" style="display:inline;fill:#8d2626;fill-opacity:1;fill-rule:evenodd;stroke:none;stroke-width:1px;stroke-linecap:butt;stroke-linejoin:miter;stroke-opacity:1" transform="translate(.329 2.14)"/><path sodipodi:nodetypes="sssss" inkscape:connector-curvature="0" d="M76.606 56.475c1.142-.892 4.058-.323 4.176.166.12.49-8.193 15.101-8.643 15.501-.45.4-4.294.434-4.344-.018-.05-.453 8.81-15.65 8.81-15.65z" style="display:inline;fill:#e63232;fill-opacity:1;fill-rule:evenodd;stroke:none;stroke-width:1px;stroke-linecap:butt;stroke-linejoin:miter;stroke-opacity:1" transform="translate(.329 2.14)"/></g></svg>
